public/images/logos/bellerose.svg

<svg width="641" height="136" viewBox="0 0 641 136" fill="none" xmlns="http://www.w3.org/2000/svg">
<path d="M177.859 104.339L154.225 99.2136C152.015 104.136 148.282 109.774 138.893 109.774C130.221 109.774 124.105 104.347 121.828 94.7512H177.859V104.339ZM150.394 71.6026H122.77C125.221 64.1703 129.784 60.4014 136.337 60.4014C144.278 60.4014 148.667 65.8211 150.394 71.6026ZM67.4709 84.9973C67.4709 99.1684 60.352 108.689 49.7642 108.689C39.0708 108.689 31.8916 99.1684 31.8916 84.9973V83.9646C32.2385 70.3212 39.2518 61.5019 49.7642 61.5019C60.352 61.4944 67.4709 70.9393 67.4709 84.9973ZM177.859 133.654H209.75V0.15918H177.851V59.9717C175.72 55.5695 172.902 51.5341 169.503 48.0168C160.921 39.1975 149.142 34.3356 136.337 34.3356C123.472 34.3356 111.73 39.4463 103.276 48.7329C99.8841 52.4933 97.1097 56.7675 95.0565 61.3964C88.2091 44.9036 74.0544 34.3356 56.4985 34.3356C46.4537 34.3356 37.9246 37.8784 31.8916 44.4212V0.166718H0V133.661H31.8992V125.822C37.8643 132.335 46.3933 135.847 56.4985 135.847C74.0468 135.847 88.2016 125.257 95.0565 108.711C102.605 125.4 118.412 135.847 138.516 135.847C155.74 135.847 168.922 129.757 177.859 117.734V133.654ZM578.25 71.6026C580.701 64.1703 585.256 60.4014 591.809 60.4014C599.75 60.4014 604.139 65.8211 605.866 71.6026H578.25ZM549.277 64.4643C547.281 69.8617 546.107 75.5279 545.793 81.2736C537.814 74.9343 526.397 72.5147 516.789 71.2483L511.133 70.5247C500.093 69.198 500.093 65.6251 500.093 64.0949C500.093 59.4516 505.146 58.7657 508.162 58.7657C515.183 58.7657 520.341 62.5195 522.31 69.0623L549.277 64.4643ZM476.437 85.9471C484.483 93.1381 496.858 95.7688 507.159 97.103L512.777 97.8266C522.596 99.1985 523.863 102.47 523.863 105.168C523.863 110.596 517.438 111.402 513.622 111.402C504.444 111.402 498.321 107.354 495.433 99.3568L473.397 103.231C475.283 97.902 476.331 92.0904 476.437 85.9471ZM444.387 84.9973C444.387 99.1684 437.268 108.689 426.68 108.689C415.986 108.689 408.8 99.1684 408.8 84.9973C408.8 70.9393 415.986 61.4944 426.68 61.4944C437.434 61.4944 444.379 70.7207 444.379 84.9973H444.387ZM327.8 94.7588V104.445L303.683 99.2211C301.481 104.143 297.748 109.782 288.344 109.782C279.672 109.782 273.564 104.354 271.286 94.7588H327.8ZM299.86 71.6026H272.244C274.695 64.1703 279.25 60.4014 285.803 60.4014C293.736 60.4014 298.133 65.8211 299.86 71.6026ZM577.3 94.7588H638.677V84.0928C638.677 69.9217 633.813 57.1074 624.975 48.0243C616.386 39.2051 604.606 34.3432 591.801 34.3432C578.944 34.3432 567.21 39.4538 558.748 48.7404C555.876 51.9182 553.448 55.4708 551.532 59.3009C545.499 43.6298 529.511 34.3432 508.155 34.3432C487.831 34.3432 473.164 43.4865 469.129 57.8084C460.532 43.5016 445.073 34.3432 426.68 34.3432C410.919 34.3432 397.307 41.0744 388.318 52.0118V36.3332H327.792V60.9893C325.608 56.199 322.624 51.8148 318.969 48.0243C310.38 39.19 298.6 34.3356 285.796 34.3356C272.938 34.3356 261.189 39.4463 252.743 48.7329C249.829 51.9569 247.372 55.5661 245.443 59.4592V0.15918H213.544V133.654H245.443V110.633C253.308 126.191 268.662 135.84 287.975 135.84C305.516 135.84 318.856 129.531 327.792 117.071V133.669H359.503V65.9342H380.309C378.033 72.0337 376.881 78.4948 376.908 85.0048C376.908 113.98 398.302 135.84 426.68 135.84C444.65 135.84 459.816 127.066 468.526 113.279C476.708 127.707 492.741 135.84 513.615 135.84C533.863 135.84 548.432 127.767 553.643 114.508C561.991 127.774 576.342 135.84 593.988 135.84C615.345 135.84 630.495 126.493 639.024 108.071L640.08 105.802L609.689 99.2136C607.487 104.136 603.754 109.774 594.358 109.774C585.686 109.774 579.577 104.347 577.3 94.7588Z" fill="black"/>
</svg>

<svg xmlns="http://www.w3.org/2000/svg" width="641" height="136" fill="none"><path fill="#000" d="m177.859 104.339-23.634-5.125c-2.21 4.922-5.943 10.56-15.332 10.56-8.672 0-14.788-5.427-17.065-15.023h56.031v9.588Zm-27.465-32.736H122.77c2.451-7.433 7.014-11.202 13.567-11.202 7.941 0 12.33 5.42 14.057 11.202ZM67.471 84.997c0 14.171-7.119 23.692-17.707 23.692-10.693 0-17.872-9.52-17.872-23.692v-1.032c.347-13.644 7.36-22.463 17.872-22.463 10.588-.008 17.707 9.437 17.707 23.495Zm110.388 48.657h31.891V.159h-31.899v59.813a46.123 46.123 0 0 0-8.348-11.955c-8.582-8.82-20.361-13.681-33.166-13.681-12.865 0-24.607 5.11-33.061 14.397a47.91 47.91 0 0 0-8.22 12.663C88.21 44.904 74.055 34.336 56.5 34.336c-10.045 0-18.574 3.542-24.607 10.085V.167H0V133.66h31.9v-7.839c5.964 6.513 14.493 10.025 24.599 10.025 17.548 0 31.703-10.59 38.557-27.136 7.549 16.689 23.356 27.136 43.46 27.136 17.224 0 30.406-6.09 39.343-18.113v15.92ZM578.25 71.603c2.451-7.433 7.006-11.202 13.559-11.202 7.941 0 12.33 5.42 14.057 11.202H578.25Zm-28.973-7.139a57.51 57.51 0 0 0-3.484 16.81c-7.979-6.34-19.396-8.76-29.004-10.026l-5.656-.723c-11.04-1.327-11.04-4.9-11.04-6.43 0-4.643 5.053-5.33 8.069-5.33 7.021 0 12.179 3.755 14.148 10.297l26.967-4.598Zm-72.84 21.483c8.046 7.191 20.421 9.822 30.722 11.156l5.618.724c9.819 1.371 11.086 4.643 11.086 7.341 0 5.428-6.425 6.234-10.241 6.234-9.178 0-15.301-4.048-18.189-12.045l-22.036 3.874c1.886-5.329 2.934-11.14 3.04-17.284Zm-32.05-.95c0 14.171-7.119 23.692-17.707 23.692-10.694 0-17.88-9.52-17.88-23.692 0-14.058 7.186-23.503 17.88-23.503 10.754 0 17.699 9.227 17.699 23.503h.008ZM327.8 94.76v9.686l-24.117-5.224c-2.202 4.922-5.935 10.561-15.339 10.561-8.672 0-14.78-5.428-17.058-15.023H327.8Zm-27.94-23.156h-27.616c2.451-7.433 7.006-11.202 13.559-11.202 7.933 0 12.33 5.42 14.057 11.202ZM577.3 94.759h61.377V84.093c0-14.171-4.864-26.986-13.702-36.069-8.589-8.819-20.369-13.68-33.174-13.68-12.857 0-24.591 5.11-33.053 14.396a47.335 47.335 0 0 0-7.216 10.56c-6.033-15.67-22.021-24.957-43.377-24.957-20.324 0-34.991 9.143-39.026 23.465-8.597-14.306-24.056-23.465-42.449-23.465-15.761 0-29.373 6.731-38.362 17.669V36.333h-60.526V60.99a46.425 46.425 0 0 0-8.823-12.965c-8.589-8.834-20.369-13.688-33.173-13.688-12.858 0-24.607 5.11-33.053 14.397a47.348 47.348 0 0 0-7.3 10.726V.16h-31.899v133.495h31.899v-23.021c7.865 15.558 23.219 25.207 42.532 25.207 17.541 0 30.881-6.309 39.817-18.769v16.598h31.711V65.934h20.806a53.91 53.91 0 0 0-3.401 19.07c0 28.976 21.394 50.836 49.772 50.836 17.97 0 33.136-8.774 41.846-22.561 8.182 14.428 24.215 22.561 45.089 22.561 20.248 0 34.817-8.073 40.028-21.332 8.348 13.266 22.699 21.332 40.345 21.332 21.357 0 36.507-9.347 45.036-27.769l1.056-2.269-30.391-6.588c-2.202 4.922-5.935 10.56-15.331 10.56-8.672 0-14.781-5.427-17.058-15.015Z"/></svg>
